www/i/cart.svg

<?xml version="1.0" encoding="utf-8"?>
<!-- Generated by IcoMoon.io -->
<!DOCTYPE svg PUBLIC "-//W3C//DTD SVG 1.1//EN" "http://www.w3.org/Graphics/SVG/1.1/DTD/svg11.dtd">
<svg version="1.1" xmlns="http://www.w3.org/2000/svg" xmlns:xlink="http://www.w3.org/1999/xlink" width="1024" height="1024" viewBox="0 0 1024 1024">
<g id="icomoon-ignore">
</g>
<path fill="#29333d" d="M1021.248 172.8l-93.248 371.2c0 4.448-0.896 8.64-2.496 12.448-3.264 7.68-9.376 13.824-17.024 17.056-3.84 1.632-8.064 2.496-12.48 2.496h-608l25.6 128h550.4c17.696 0 32 14.304 32 32s-14.304 32-32 32h-576c-17.696 0-32-14.304-32-32l-121.6-608h-102.4c-17.664 0-32-14.336-32-32s14.336-32 32-32h128c17.696 0 32 14.336 32 32l6.4 32h793.6c17.696 0 32 14.336 32 32 0 4.576-1.024 8.864-2.752 12.8zM275.2 512h108.8v-320h-172.8l64 320zM576 192h-160v320h160v-320zM768 192h-160v320h160v-320zM800 192v320h72.096l81.056-320h-153.152zM352 832c53.024 0 96 43.008 96 96s-42.976 96-96 96-96-43.008-96-96 42.976-96 96-96zM352 960c17.696 0 32-14.304 32-32s-14.304-32-32-32-32 14.304-32 32 14.304 32 32 32zM800 832c53.024 0 96 43.008 96 96s-42.976 96-96 96-96-43.008-96-96 42.976-96 96-96zM800 960c17.696 0 32-14.304 32-32s-14.304-32-32-32-32 14.304-32 32 14.304 32 32 32z"></path>
</svg>

<svg xmlns="http://www.w3.org/2000/svg" width="1024" height="1024" viewBox="0 0 1024 1024"><path fill="#29333d" d="M1021.248 172.8L928 544c0 4.448-.896 8.64-2.496 12.448-3.264 7.68-9.376 13.824-17.024 17.056-3.84 1.632-8.064 2.496-12.48 2.496H288l25.6 128H864c17.696 0 32 14.304 32 32s-14.304 32-32 32H288c-17.696 0-32-14.304-32-32L134.4 128H32c-17.664 0-32-14.336-32-32s14.336-32 32-32h128c17.696 0 32 14.336 32 32l6.4 32H992c17.696 0 32 14.336 32 32 0 4.576-1.024 8.864-2.752 12.8zM275.2 512H384V192H211.2l64 320zM576 192H416v320h160V192zm192 0H608v320h160V192zm32 0v320h72.096l81.056-320H800zM352 832c53.024 0 96 43.008 96 96s-42.976 96-96 96-96-43.008-96-96 42.976-96 96-96zm0 128c17.696 0 32-14.304 32-32s-14.304-32-32-32-32 14.304-32 32 14.304 32 32 32zm448-128c53.024 0 96 43.008 96 96s-42.976 96-96 96-96-43.008-96-96 42.976-96 96-96zm0 128c17.696 0 32-14.304 32-32s-14.304-32-32-32-32 14.304-32 32 14.304 32 32 32z"/></svg>
